X:6513
T:Grant Barry's
M:6/8
S:Tony Gordon, manuscript
I:speed 250
N:originally written in Eflat. 
K:D
|:DEB AFD | F2F F2E | DFB AFD | E2E E2D | 
DFB AFD | DFA d2 e | fed Bcd | A2F E2D :| 
|:d2d def | A2A ABA | e2e ede | fed B2A | 
d2d def | ABA e2e  |fed Bcd | A2F E2D:|
